X: 176
T:MacArthur Road
R:reel
D:Four Men and a Dog: Barking Mad
Z:id:hn-reel-497
M:C|
L:1/8
K:E
B2GB Bcef|~g3e fece|~f3e fece|fage fece|
B2GB Bcef|~g3e fece|~f3g fece|[1 Beef ~e3c:|[2 Beef e2ga||
|:be~e2 bec'e|be~e2 fece|~f3g fece|fage fece|
|[1 be~e2 bec'e|be~e2 fece|~f3g fece|Beef efga:|
|[2 ~B3G Bcef|~g3e fece|~f3g fece|Beef e2ec||
